X:204
T:Rout for the Blues (Nichols)
%%VWML:SBG-1-2-379-0
F:http://www.vwml.org/record/SBG/1/2/379
Z:Original Sibelius transcriptions by M. & S. Graebe
M:6/8
I:linebreak $
K:C
V:1 treble nm="P1"
V:1
 c/c/ | cBA GFE | DCB, CE c | cBA Afd | (c3 B2) d/d/ | dcB dcA | GGG G2 c |$ cec dfd | BAB cBA | %9
 GAF EDC | !fermata!G2 D !fermata!A2 G/G/ | Afe gfB | (c3 c2) x | %13

